assets/icons/utility/quip.svg

<?xml version="1.0"?><svg xmlns="http://www.w3.org/2000/svg" width="52" height="52" viewBox="0 0 52 52"><path fill="#fff" d="m24.5 2.1c-12 0.7-21.7 10.4-22.4 22.4-1 13.8 10.1 25.5 23.9 25.5h24v-24c0-13.8-11.7-24.9-25.5-23.9z m-9.9 13.4c0-0.9 0.7-1.6 1.6-1.6h19.6c0.9 0 1.6 0.7 1.6 1.6v1.6c0 0.9-0.7 1.6-1.6 1.6h-19.7c-0.9 0-1.6-0.7-1.6-1.6 0.1 0.1 0.1-1.6 0.1-1.6z m22.8 20.8c0 0.9-0.7 1.6-1.6 1.6h-19.7c-0.9 0-1.6-0.7-1.6-1.6v-1.6c0-0.9 0.7-1.6 1.6-1.6h19.6c0.9 0 1.6 0.7 1.6 1.6v1.6h0.1z m6-9.5c0 0.9-0.7 1.6-1.6 1.6h-31.7c-0.9 0-1.6-0.7-1.6-1.6v-1.6c0-0.9 0.7-1.6 1.6-1.6h31.7c0.9 0 1.6 0.7 1.6 1.6v1.6z"></path></svg>

<svg xmlns="http://www.w3.org/2000/svg" x="0px" y="0px"
	 width="52px" height="52px" viewBox="0 0 52 52" enable-background="new 0 0 52 52" xml:space="preserve">
<g display="none">
	<path display="inline" opacity="0.2" fill="#FFFFFF" enable-background="new" d="M0,0v52h52V0H0z M49.9,49.9H2.1V2.1h47.8
		C49.9,2.1,49.9,49.9,49.9,49.9z"/>
</g>
<g display="none">
	<rect x="2" y="2" display="inline" fill="none" stroke-width="0.25" stroke-miterlimit="10" width="48" height="48"/>
</g>
<g display="none">
	<g display="inline" opacity="0.5">
		<line fill="none" stroke-width="0.25" stroke-miterlimit="10" x1="50" y1="2" x2="2" y2="50"/>
		<line fill="none" stroke-width="0.25" stroke-miterlimit="10" x1="2" y1="2" x2="49.9" y2="50"/>
		<rect x="2" y="2" fill="none" stroke-width="0.25" stroke-miterlimit="10" width="2" height="48"/>
		<rect x="4" y="2" fill="none" stroke-width="0.25" stroke-miterlimit="10" width="2" height="48"/>
		<rect x="6" y="2" fill="none" stroke-width="0.25" stroke-miterlimit="10" width="2" height="48"/>
		<rect x="8" y="2" fill="none" stroke-width="0.25" stroke-miterlimit="10" width="2" height="48"/>
		<rect x="10" y="2" fill="none" stroke-width="0.25" stroke-miterlimit="10" width="2" height="48"/>
		<rect x="12" y="2" fill="none" stroke-width="0.25" stroke-miterlimit="10" width="2" height="48"/>
		<rect x="14" y="2" fill="none" stroke-width="0.25" stroke-miterlimit="10" width="2" height="48"/>
		<rect x="16" y="2" fill="none" stroke-width="0.25" stroke-miterlimit="10" width="2" height="48"/>
		<rect x="18" y="2" fill="none" stroke-width="0.25" stroke-miterlimit="10" width="2" height="48"/>
		<rect x="20" y="2" fill="none" stroke-width="0.25" stroke-miterlimit="10" width="2" height="48"/>
		<rect x="22" y="2" fill="none" stroke-width="0.25" stroke-miterlimit="10" width="2" height="48"/>
		<rect x="24" y="2" fill="none" stroke-width="0.25" stroke-miterlimit="10" width="2" height="48"/>
		<rect x="26" y="2" fill="none" stroke-width="0.25" stroke-miterlimit="10" width="2" height="48"/>
		<rect x="28" y="2" fill="none" stroke-width="0.25" stroke-miterlimit="10" width="2" height="48"/>
		<rect x="30" y="2" fill="none" stroke-width="0.25" stroke-miterlimit="10" width="2" height="48"/>
		<rect x="32" y="2" fill="none" stroke-width="0.25" stroke-miterlimit="10" width="2" height="48"/>
		<rect x="34" y="2" fill="none" stroke-width="0.25" stroke-miterlimit="10" width="2" height="48"/>
		<rect x="36" y="2" fill="none" stroke-width="0.25" stroke-miterlimit="10" width="2" height="48"/>
		<rect x="38" y="2" fill="none" stroke-width="0.25" stroke-miterlimit="10" width="2" height="48"/>
		<rect x="40" y="2" fill="none" stroke-width="0.25" stroke-miterlimit="10" width="2" height="48"/>
		<rect x="42" y="2" fill="none" stroke-width="0.25" stroke-miterlimit="10" width="2" height="48"/>
		<rect x="44" y="2" fill="none" stroke-width="0.25" stroke-miterlimit="10" width="2" height="48"/>
		<rect x="46" y="2" fill="none" stroke-width="0.25" stroke-miterlimit="10" width="2" height="48"/>
		<rect x="48" y="2" fill="none" stroke-width="0.25" stroke-miterlimit="10" width="2" height="48"/>
		<rect x="2" y="48" fill="none" stroke-width="0.25" stroke-miterlimit="10" width="48" height="2"/>
		<rect x="2" y="46" fill="none" stroke-width="0.25" stroke-miterlimit="10" width="48" height="2"/>
		<rect x="2" y="44" fill="none" stroke-width="0.25" stroke-miterlimit="10" width="48" height="2"/>
		<rect x="2" y="42" fill="none" stroke-width="0.25" stroke-miterlimit="10" width="48" height="2"/>
		<rect x="2" y="40" fill="none" stroke-width="0.25" stroke-miterlimit="10" width="48" height="2"/>
		<rect x="2" y="38" fill="none" stroke-width="0.25" stroke-miterlimit="10" width="48" height="2"/>
		<rect x="2" y="36" fill="none" stroke-width="0.25" stroke-miterlimit="10" width="48" height="2"/>
		<rect x="2" y="34" fill="none" stroke-width="0.25" stroke-miterlimit="10" width="48" height="2"/>
		<rect x="2" y="32" fill="none" stroke-width="0.25" stroke-miterlimit="10" width="48" height="2"/>
		<rect x="2" y="30" fill="none" stroke-width="0.25" stroke-miterlimit="10" width="48" height="2"/>
		<rect x="2" y="28" fill="none" stroke-width="0.25" stroke-miterlimit="10" width="48" height="2"/>
		<rect x="2" y="26" fill="none" stroke-width="0.25" stroke-miterlimit="10" width="48" height="2"/>
		<rect x="2" y="24" fill="none" stroke-width="0.25" stroke-miterlimit="10" width="48" height="2"/>
		<rect x="2" y="22" fill="none" stroke-width="0.25" stroke-miterlimit="10" width="48" height="2"/>
		<rect x="2" y="20" fill="none" stroke-width="0.25" stroke-miterlimit="10" width="48" height="2"/>
		<rect x="2" y="18" fill="none" stroke-width="0.25" stroke-miterlimit="10" width="48" height="2"/>
		<rect x="2" y="16" fill="none" stroke-width="0.25" stroke-miterlimit="10" width="48" height="2"/>
		<rect x="2" y="14" fill="none" stroke-width="0.25" stroke-miterlimit="10" width="48" height="2"/>
		<rect x="2" y="12" fill="none" stroke-width="0.25" stroke-miterlimit="10" width="48" height="2"/>
		<rect x="2" y="10" fill="none" stroke-width="0.25" stroke-miterlimit="10" width="48" height="2"/>
		<rect x="2" y="8" fill="none" stroke-width="0.25" stroke-miterlimit="10" width="48" height="2"/>
		<rect x="2" y="6" fill="none" stroke-width="0.25" stroke-miterlimit="10" width="48" height="2"/>
		<rect x="2" y="4" fill="none" stroke-width="0.25" stroke-miterlimit="10" width="48" height="2"/>
		<rect x="2" y="2" fill="none" stroke-width="0.25" stroke-miterlimit="10" width="48" height="2"/>
	</g>
</g>
<g>
	<path fill="#FFFFFF" d="M24.5,2.1C12.5,2.8,2.8,12.5,2.1,24.5C1.1,38.3,12.2,50,26,50h24V26C50,12.2,38.3,1.1,24.5,2.1z M14.6,15.5
		c0-0.9,0.7-1.6,1.6-1.6h19.6c0.9,0,1.6,0.7,1.6,1.6v1.6c0,0.9-0.7,1.6-1.6,1.6H16.1c-0.9,0-1.6-0.7-1.6-1.6
		C14.6,17.2,14.6,15.5,14.6,15.5z M37.4,36.3c0,0.9-0.7,1.6-1.6,1.6H16.1c-0.9,0-1.6-0.7-1.6-1.6v-1.6c0-0.9,0.7-1.6,1.6-1.6h19.6
		c0.9,0,1.6,0.7,1.6,1.6v1.6H37.4z M43.4,26.8c0,0.9-0.7,1.6-1.6,1.6H10.1c-0.9,0-1.6-0.7-1.6-1.6v-1.6c0-0.9,0.7-1.6,1.6-1.6h31.7
		c0.9,0,1.6,0.7,1.6,1.6C43.4,25.2,43.4,26.8,43.4,26.8z"/>
</g>
</svg>
